images/icons/instagram.svg

<?xml version="1.0" encoding="UTF-8" standalone="no"?>
<svg width="40px" height="40px" viewBox="0 0 40 40" version="1.1" xmlns="http://www.w3.org/2000/svg" xmlns:xlink="http://www.w3.org/1999/xlink" xmlns:sketch="http://www.bohemiancoding.com/sketch/ns">
    <defs></defs>
    <g id="Artboard-1" sketch:type="MSArtboardGroup" fill="#B6C2CB">
        <path d="M35.3859111,16.9215385 L31.9034755,16.9215385 C32.1571654,17.9064947 32.3069716,18.9355288 32.3069716,19.9991262 C32.3069716,26.7975087 26.7970553,32.3072442 20.0000485,32.3072442 C13.2030418,32.3072442 7.69293129,26.7975087 7.69293129,19.9991262 C7.69293129,18.9355288 7.84332001,17.9063976 8.09700994,16.9215385 L4.61457431,16.9215385 L4.61457431,33.8456983 C4.61457431,34.6944403 5.30350802,35.3827931 6.15438387,35.3827931 L33.8456161,35.3827931 C34.6966862,35.3827931 35.385814,34.6944403 35.385814,33.8456983 L35.385814,16.9215385 L35.3859111,16.9215385 Z M35.3859111,6.15313667 C35.3859111,5.30361798 34.6966862,4.6146826 33.8457132,4.6146826 L29.2315273,4.6146826 C28.3814281,4.6146826 27.6930769,5.30361798 27.6930769,6.15313667 L27.6930769,10.7691785 C27.6930769,11.6181147 28.3814281,12.3076326 29.2315273,12.3076326 L33.8457132,12.3076326 C34.6967832,12.3076326 35.3859111,11.6181147 35.3859111,10.7691785 L35.3859111,6.15313667 L35.3859111,6.15313667 Z M20.0000485,12.3076326 C15.7512033,12.3076326 12.3075056,15.750659 12.3075056,19.9992233 C12.3075056,24.2473993 15.7513004,27.6924645 20.0000485,27.6924645 C24.2485055,27.6924645 27.6929798,24.2473993 27.6929798,19.9992233 C27.6929798,15.7505619 24.2485055,12.3076326 20.0000485,12.3076326 L20.0000485,12.3076326 Z M35.3859111,40 L4.61457431,40 C2.06641278,40 0,37.9330968 0,35.3827931 L0,4.6146826 C0,2.06573818 2.06641278,-3.55271368e-15 4.61457431,-3.55271368e-15 L35.385814,-3.55271368e-15 C37.9343639,-3.55271368e-15 40,2.06573818 40,4.6146826 L40,35.3827931 C40.0000971,37.9330968 37.934461,40 35.3859111,40 L35.3859111,40 Z" id="instagram-6-icon" sketch:type="MSShapeGroup" fill="currentColor"></path>
    </g>
</svg>

<svg width="40" height="40" viewBox="0 0 40 40" xmlns="http://www.w3.org/2000/svg"><path d="M35.386 16.922h-3.483c.254.984.404 2.014.404 3.077 0 6.798-5.51 12.307-12.307 12.307-6.797 0-12.307-5.51-12.307-12.308 0-1.064.15-2.094.404-3.078H4.615v16.924c0 .848.69 1.537 1.54 1.537h27.69c.852 0 1.54-.69 1.54-1.537V16.922zm0-10.77c0-.848-.69-1.537-1.54-1.537h-4.614c-.85 0-1.54.69-1.54 1.538v4.616c0 .848.69 1.538 1.54 1.538h4.614c.85 0 1.54-.69 1.54-1.54V6.154zM20 12.31c-4.25 0-7.692 3.443-7.692 7.69 0 4.25 3.443 7.694 7.692 7.694 4.25 0 7.693-3.445 7.693-7.693 0-4.25-3.444-7.692-7.693-7.692zM35.386 40H4.616C2.065 40 0 37.933 0 35.383V4.615C0 2.065 2.066 0 4.615 0h30.77C37.936 0 40 2.066 40 4.615v30.768C40 37.933 37.934 40 35.386 40z" fill="currentColor"/></svg>
